X:1
T:Old Grey Mare
M:4/4
L:1/8
K:G
"G"D2 DE G2 GA| BABc BA G2|"D"AGAB AG E2|"G"GFGA GED2|
"G"D2 DE G2 GA| BABc BA G2|"D"A2A2 B2A2 |"G"G4 "(C)"G4:|
|:"G"g4e4|d6dG|B4G4 |"Em"E8|"G"g4e4| d6 GA|"D"BABc BAF2 |"G"G4G4:|
